justvector/photobucket.svg

<?xml version="1.0" encoding="iso-8859-1"?>
<!-- Generator: Adobe Illustrator 15.0.0, SVG Export Plug-In . SVG Version: 6.00 Build 0)  -->
<!DOCTYPE svg PUBLIC "-//W3C//DTD SVG 1.1//EN" "http://www.w3.org/Graphics/SVG/1.1/DTD/svg11.dtd">
<svg version="1.1" id="Icons" xmlns="http://www.w3.org/2000/svg" xmlns:xlink="http://www.w3.org/1999/xlink" x="0px" y="0px"
	 width="100px" height="100px" viewBox="0 0 100 100" style="enable-background:new 0 0 100 100;" xml:space="preserve">
<path id="Photobucket" d="M90.909,21.562H65.827C61.138,18.978,55.744,17.5,50,17.5s-11.138,1.478-15.829,4.062h-8.717
	c0-2.234-1.841-4.062-4.091-4.062h-8.183c-2.248,0-4.09,1.827-4.09,4.062l0,0C6.842,21.562,5,23.392,5,25.624v48.752
	c0,2.232,1.842,4.063,4.091,4.063h25.08C38.862,81.021,44.256,82.5,50,82.5s11.138-1.479,15.827-4.062h25.082
	c2.249,0,4.091-1.83,4.091-4.063V25.624C95,23.392,93.158,21.562,90.909,21.562z M9.091,74.376V25.624h4.09h8.183h7.04
	C21.596,31.579,17.273,40.28,17.273,50s4.322,18.421,11.13,24.376H9.091z M64.693,74.376c-2.109,1.257-4.395,2.254-6.808,2.943
	c-0.145,0.04-0.287,0.071-0.428,0.111c-0.979,0.266-1.984,0.469-3.004,0.627c-0.279,0.047-0.559,0.095-0.844,0.131
	c-1.181,0.15-2.384,0.25-3.61,0.25s-2.43-0.1-3.612-0.25c-0.283-0.036-0.563-0.084-0.842-0.131c-1.02-0.158-2.025-0.361-3.004-0.627
	c-0.141-0.04-0.285-0.071-0.428-0.111c-2.413-0.689-4.698-1.687-6.808-2.943C26.964,69.407,21.363,60.362,21.363,50
	s5.601-19.407,13.943-24.376c2.109-1.257,4.395-2.254,6.808-2.943c0.143-0.04,0.287-0.072,0.428-0.111
	c0.979-0.262,1.98-0.469,3-0.627c0.283-0.047,0.566-0.095,0.851-0.131c1.182-0.15,2.384-0.25,3.607-0.25
	c1.222,0,2.426,0.1,3.607,0.25c0.284,0.036,0.567,0.084,0.851,0.131c1.02,0.158,2.021,0.365,3,0.627
	c0.141,0.039,0.283,0.071,0.428,0.111c2.413,0.689,4.698,1.687,6.808,2.943C73.034,30.593,78.637,39.638,78.637,50
	S73.034,69.407,64.693,74.376z M90.909,74.376H71.597C78.404,68.421,82.727,59.72,82.727,50s-4.322-18.421-11.13-24.376h19.313
	V74.376z M72.504,50h-3.463c0-10.427-8.542-18.909-19.041-18.909v-3.439C62.408,27.651,72.504,37.678,72.504,50z"/>
</svg>

<?xml version="1.0" encoding="UTF-8" standalone="no"?>
<!DOCTYPE svg PUBLIC "-//W3C//DTD SVG 1.1//EN" "http://www.w3.org/Graphics/SVG/1.1/DTD/svg11.dtd">
<svg width="100%" height="100%" viewBox="0 0 100 100" version="1.1" xmlns="http://www.w3.org/2000/svg" xmlns:xlink="http://www.w3.org/1999/xlink" xml:space="preserve" xmlns:serif="http://www.serif.com/" style="fill-rule:evenodd;clip-rule:evenodd;stroke-linejoin:round;stroke-miterlimit:2;">
    <path id="Photobucket" d="M90.909,21.562L65.827,21.562C61.138,18.978 55.744,17.5 50,17.5C44.256,17.5 38.862,18.978 34.171,21.562L25.454,21.562C25.454,19.328 23.613,18.5 21.363,18.5L13.18,18.5C10.932,18.5 9.09,19.327 9.09,21.562C6.842,21.562 5,23.392 5,25.624L5,74.376C5,76.608 6.842,78.439 9.091,78.439L34.171,78.439C38.862,81.021 44.256,82.5 50,82.5C55.744,82.5 61.138,81.021 65.827,78.438L90.909,78.438C93.158,78.438 95,76.608 95,74.375L95,25.624C95,23.392 93.158,21.562 90.909,21.562ZM9.091,74.376L9.091,25.624L28.404,25.624C21.596,31.579 17.273,40.28 17.273,50C17.273,59.72 21.595,68.421 28.403,74.376L9.091,74.376ZM64.693,74.376C62.584,75.633 60.298,76.63 57.885,77.319C57.74,77.359 57.598,77.39 57.457,77.43C56.478,77.696 55.473,77.899 54.453,78.057C54.174,78.104 53.894,78.152 53.609,78.188C52.428,78.338 51.225,78.438 49.999,78.438C48.773,78.438 47.569,78.338 46.387,78.188C46.104,78.152 45.824,78.104 45.545,78.057C44.525,77.899 43.52,77.696 42.541,77.43C42.4,77.39 42.256,77.359 42.113,77.319C39.7,76.63 37.415,75.632 35.305,74.376C26.964,69.407 21.363,60.362 21.363,50C21.363,39.638 26.964,30.593 35.306,25.624C37.415,24.367 39.701,23.37 42.114,22.681C42.257,22.641 42.401,22.609 42.542,22.57C43.521,22.308 44.522,22.101 45.542,21.943C45.825,21.896 46.108,21.848 46.393,21.812C47.575,21.662 48.777,21.562 50,21.562C51.222,21.562 52.426,21.662 53.607,21.812C53.891,21.848 54.174,21.896 54.458,21.943C55.478,22.101 56.479,22.308 57.458,22.57C57.599,22.609 57.741,22.641 57.886,22.681C60.299,23.37 62.584,24.368 64.694,25.624C73.034,30.593 78.637,39.638 78.637,50C78.637,60.362 73.034,69.407 64.693,74.376ZM90.91,74.376L71.597,74.376C78.404,68.421 82.727,59.72 82.727,50C82.727,40.28 78.405,31.579 71.597,25.624L90.91,25.624L90.91,74.376Z" style="fill-rule:nonzero;"/>
</svg>
